assets/images/document-slash.svg

<svg xmlns="http://www.w3.org/2000/svg" width="20" height="20" viewBox="0 0 20 20" style="enable-background:new 0 0 20 20"><path d="M18 13.9861V7.5C18 7.22386 17.7761 7 17.5 7H11.5C11.2239 7 11 6.77614 11 6.5V0.5C11 0.223858 10.7761 0 10.5 0H4C3.52923 0 3.09644 0.162656 2.75478 0.434835L18 13.9861Z"/><path d="M2 7.79165V18C2 19.1046 2.89543 20 4 20H15.7344L2 7.79165Z"/><path d="M13 0L18 5H13.5C13.2239 5 13 4.77614 13 4.5V0Z"/><path d="M1.66437 2.2526C1.25159 1.88568 0.619519 1.92286 0.252601 2.33565C-0.114317 2.74843 -0.0771359 3.3805 0.335647 3.74742L18.3356 19.7474C18.7484 20.1143 19.3805 20.0772 19.7474 19.6644C20.1143 19.2516 20.0772 18.6195 19.6644 18.2526L1.66437 2.2526Z"/></svg>

<svg xmlns="http://www.w3.org/2000/svg" width="20" height="20" viewBox="0 0 20 20"><path d="M18 13.986V7.5a.5.5 0 0 0-.5-.5h-6a.5.5 0 0 1-.5-.5v-6a.5.5 0 0 0-.5-.5H4c-.47 0-.904.163-1.245.435zM2 7.792V18a2 2 0 0 0 2 2h11.734z"/><path d="m13 0 5 5h-4.5a.5.5 0 0 1-.5-.5zM1.664 2.253A1 1 0 1 0 .336 3.747l18 16a1 1 0 0 0 1.328-1.494z"/></svg>
